X:309
%%topmargin 3cm
U:~=!turn!
T:Calam breugach
T:Callum breugach
T:Lying Malcolm
C:Very old.
O:Scotland
B:Keith Norman MacDonald : "The Skye collection of the best reels & strathspeys extant" : 1887
Z:Ralph Palmer
R:Strathspey
M:C
L:1/8
K:E phrygian
B | {/^F}G<EE>G D>E{/F}G>B | A/A/A e>A {AB}c>Ae>A | {/^F}G>EE>G D>E{/F}G>B | {AB}c>AB>G A/A/A e :|
^f | g>g (a/g/).^f/.e/ (d/c/).B/.A/ {/^F}G>B | (A/B/).c/.d/ e>A {AB}c>Ae>^f | g>g (a/g/).^f/.e/ (d/c/).B/.A/ {/^F}G>B | c>AB>G A/A/A {^g}a2 |
{/^f}gG D>E{/F}G>B | {AB}c>AB>^G A/A/A e ||
